X:1
T:Title
%%score 1 { 2 | 3 }
L:1/8
Q:1/4=100
M:4/4
K:G
V:1 treble nm="Grand Piano, Piano"
V:2 bass nm="Grand Piano, Piano"
V:3 bass 
V:1
 [B,D]4 [CE]2 [B,D]2 | [DG]3 [DA] [DB]4 | [DB]4 [DA]2 [^CG]2 | [DA]8 | [B,D]4 [CE]2 [B,D]2 | %5
w: 1.~More~ love~ to~|Thee,~ O~ Christ,~|More~ love~ to~|Thee!~|Hear~ Thou~ the~|
 [DG]3 [DA] [DB]4 | [DA]4 [DG]2 [DF]2 | [DG]8 | [Gc]4 [Gc]2 [Gc]2 | [Gc]3 [GB] [GB]4 | %10
w: prayer~ I~ make~|On~ ben ded~|knee;~|This~ is~ my~|earn est~ plea:~|
 [FA]4 [FA]2 [FA]2 | [DA]3 [DG] [DG]4 | [CE]4 [CE]2 [CE]2 | [DG]8 | [EA]4 [DG]2 [DF]2 | [DG]8 |] %16
w: More~ love,~ O~|Christ,~ to~ Thee,~|More~ love~ to~|Thee,~|More~ love~ to~|Thee!~|
V:2
 G,4 G,2 G,2 | G,3 F, G,4 | G,4 A,2 A,2 | F,8 | G,4 G,2 G,2 | G,3 F, G,4 | C4 B,2 A,2 | B,8 | %8
 E4 E2 E2 | E3 D D4 | C4 C2 C2 | C3[K:bass] B, B,4 | G,4 G,2 G,2 | G,8 | C4 B,2 A,2 | B,8 |] %16
V:3
 G,,4 G,,2 G,,2 | B,,3 D, z4 | z4 F,2 E,2 | D,8 | G,,4 G,,2 G,,2 | B,,3 D, z4 | D,4 D,2 D,2 | G,8 | %8
 G,4 G,2 G,2 | G,3 G, G,4 | D,4 D,2 D,2 | G,,3 G,, G,,4 | C,4 C,2 C,2 | B,,8 | C,4 D,2 D,2 | G,8 |] %16

